public/logo-light.svg

<svg width="364" height="121" fill="none" xmlns="http://www.w3.org/2000/svg"><path d="M171.152 44.72C167.486 28.46 179.849 13 196.516 13H337.5c14.359 0 26 11.64 26 26v48.876c0 14.408-11.716 26.068-26.124 25.999l-139.634-.666c-16.083-.077-28.24-14.59-25.494-30.438l2.368-13.667c.583-3.37.497-6.821-.256-10.157l-3.208-14.228Z" fill="#72E3AD"/><path d="M23.261 96V29.184h15.072V96H23.261ZM2.045 41.376V28.224h57.504v13.152H2.045ZM57.34 96V49.344h14.688V96H57.34Zm14.688-25.632-6.144-4.8c1.216-5.44 3.264-9.664 6.144-12.672 2.88-3.008 6.88-4.512 12-4.512 2.24 0 4.192.352 5.856 1.056 1.728.64 3.232 1.664 4.512 3.072l-8.736 11.04c-.64-.704-1.44-1.248-2.4-1.632-.96-.384-2.048-.576-3.264-.576-2.432 0-4.384.768-5.856 2.304-1.408 1.472-2.112 3.712-2.112 6.72ZM98.31 96V49.344h14.688V96H98.309Zm7.392-53.088c-2.304 0-4.224-.768-5.76-2.304-1.472-1.6-2.208-3.52-2.208-5.76 0-2.304.736-4.224 2.208-5.76 1.536-1.536 3.456-2.304 5.76-2.304s4.192.768 5.664 2.304c1.472 1.536 2.208 3.456 2.208 5.76 0 2.24-.736 4.16-2.208 5.76-1.472 1.536-3.36 2.304-5.664 2.304ZM150.22 96.96c-3.136 0-6.016-.64-8.64-1.92-2.624-1.344-4.768-3.104-6.432-5.28-1.664-2.24-2.624-4.736-2.88-7.488v-19.68c.256-2.752 1.216-5.184 2.88-7.296 1.664-2.176 3.808-3.872 6.432-5.088 2.624-1.216 5.504-1.824 8.64-1.824 4.416 0 8.32 1.056 11.712 3.168 3.456 2.112 6.144 4.992 8.064 8.64 1.984 3.648 2.976 7.808 2.976 12.48 0 4.672-.992 8.832-2.976 12.48-1.92 3.648-4.608 6.528-8.064 8.64-3.392 2.112-7.296 3.168-11.712 3.168ZM123.34 96V26.304h14.688v34.464l-2.4 11.328 2.208 11.328V96H123.34Zm24.288-12.288c2.048 0 3.84-.48 5.376-1.44a10.07 10.07 0 0 0 3.744-3.936c.896-1.664 1.344-3.552 1.344-5.664 0-2.176-.448-4.096-1.344-5.76-.896-1.664-2.144-2.944-3.744-3.84-1.536-.96-3.328-1.44-5.376-1.44-2.048 0-3.872.48-5.472 1.44-1.6.896-2.848 2.176-3.744 3.84-.832 1.664-1.248 3.584-1.248 5.76 0 2.176.448 4.096 1.344 5.76.896 1.664 2.112 2.976 3.648 3.936 1.6.896 3.424 1.344 5.472 1.344Z" fill="#171717"/><path d="M180.434 96V49.344h14.688V96h-14.688Zm7.392-53.088c-2.304 0-4.224-.768-5.76-2.304-1.472-1.6-2.208-3.52-2.208-5.76 0-2.304.736-4.224 2.208-5.76 1.536-1.536 3.456-2.304 5.76-2.304s4.192.768 5.664 2.304c1.472 1.536 2.208 3.456 2.208 5.76 0 2.24-.736 4.16-2.208 5.76-1.472 1.536-3.36 2.304-5.664 2.304ZM223.417 96V29.184h15.072V96h-15.072Zm-21.216-54.624V28.224h57.504v13.152h-57.504Zm72.908 55.584c-4.287 0-8.127-1.056-11.519-3.168-3.328-2.112-5.984-4.992-7.968-8.64-1.92-3.648-2.88-7.808-2.88-12.48 0-4.672.96-8.832 2.88-12.48 1.984-3.648 4.64-6.528 7.968-8.64 3.392-2.112 7.232-3.168 11.519-3.168 3.137 0 5.953.608 8.449 1.824 2.56 1.216 4.64 2.912 6.24 5.088 1.6 2.112 2.496 4.544 2.688 7.296v20.16c-.192 2.752-1.088 5.216-2.688 7.392-1.536 2.112-3.584 3.776-6.144 4.992-2.56 1.216-5.408 1.824-8.545 1.824Zm2.977-13.248c3.136 0 5.664-1.024 7.584-3.072 1.92-2.112 2.88-4.768 2.88-7.968 0-2.176-.448-4.096-1.344-5.76-.832-1.664-2.048-2.944-3.648-3.84-1.536-.96-3.328-1.44-5.376-1.44-2.048 0-3.872.48-5.472 1.44-1.536.896-2.784 2.176-3.744 3.84-.896 1.664-1.344 3.584-1.344 5.76 0 2.112.448 4 1.344 5.664a10.07 10.07 0 0 0 3.744 3.936c1.6.96 3.392 1.44 5.376 1.44ZM287.974 96V83.424l2.208-11.328-2.208-11.328V49.344h14.4V96h-14.4Zm31.365 0V30.048h14.688V96h-14.688Zm-10.56-34.176v-12.48h35.808v12.48h-35.808Z" fill="#fff"/></svg>

<svg width="364" height="121" viewBox="0 0 364 121" fill="none" xmlns="http://www.w3.org/2000/svg" shape-rendering="crispEdges">
  <path d="M171.152 44.72C167.486 28.46 179.849 13 196.516 13H337.5C351.859 13 363.5 24.64 363.5 39V87.876C363.5 102.284 351.784 113.944 337.376 113.875L197.742 113.209C181.659 113.132 169.502 98.619 172.248 82.771L174.616 69.104C175.199 65.734 175.113 62.283 174.36 58.947L171.152 44.72Z" fill="#FF3B30" stroke="#121212" stroke-width="3"/>
  <path d="M23.261 96V29.184h15.072V96H23.261ZM2.045 41.376V28.224h57.504v13.152H2.045ZM57.34 96V49.344h14.688V96H57.34Zm14.688-25.632-6.144-4.8c1.216-5.44 3.264-9.664 6.144-12.672 2.88-3.008 6.88-4.512 12-4.512 2.24 0 4.192.352 5.856 1.056 1.728.64 3.232 1.664 4.512 3.072l-8.736 11.04c-.64-.704-1.44-1.248-2.4-1.632-.96-.384-2.048-.576-3.264-.576-2.432 0-4.384.768-5.856 2.304-1.408 1.472-2.112 3.712-2.112 6.72ZM98.31 96V49.344h14.688V96H98.309Zm7.392-53.088c-2.304 0-4.224-.768-5.76-2.304-1.472-1.6-2.208-3.52-2.208-5.76 0-2.304.736-4.224 2.208-5.76 1.536-1.536 3.456-2.304 5.76-2.304s4.192.768 5.664 2.304c1.472 1.536 2.208 3.456 2.208 5.76 0 2.24-.736 4.16-2.208 5.76-1.472 1.536-3.36 2.304-5.664 2.304ZM150.22 96.96c-3.136 0-6.016-.64-8.64-1.92-2.624-1.344-4.768-3.104-6.432-5.28-1.664-2.24-2.624-4.736-2.88-7.488v-19.68c.256-2.752 1.216-5.184 2.88-7.296 1.664-2.176 3.808-3.872 6.432-5.088 2.624-1.216 5.504-1.824 8.64-1.824 4.416 0 8.32 1.056 11.712 3.168 3.456 2.112 6.144 4.992 8.064 8.64 1.984 3.648 2.976 7.808 2.976 12.48 0 4.672-.992 8.832-2.976 12.48-1.92 3.648-4.608 6.528-8.064 8.64-3.392 2.112-7.296 3.168-11.712 3.168ZM123.34 96V26.304h14.688v34.464l-2.4 11.328 2.208 11.328V96H123.34Zm24.288-12.288c2.048 0 3.84-.48 5.376-1.44a10.07 10.07 0 0 0 3.744-3.936c.896-1.664 1.344-3.552 1.344-5.664 0-2.176-.448-4.096-1.344-5.76-.896-1.664-2.144-2.944-3.744-3.84-1.536-.96-3.328-1.44-5.376-1.44-2.048 0-3.872.48-5.472 1.44-1.6.896-2.848 2.176-3.744 3.84-.832 1.664-1.248 3.584-1.248 5.76 0 2.176.448 4.096 1.344 5.76.896 1.664 2.112 2.976 3.648 3.936 1.6.896 3.424 1.344 5.472 1.344Z" fill="#121212"/>
  <path d="M180.434 96V49.344h14.688V96h-14.688Zm7.392-53.088c-2.304 0-4.224-.768-5.76-2.304-1.472-1.6-2.208-3.52-2.208-5.76 0-2.304.736-4.224 2.208-5.76 1.536-1.536 3.456-2.304 5.76-2.304s4.192.768 5.664 2.304c1.472 1.536 2.208 3.456 2.208 5.76 0 2.24-.736 4.16-2.208 5.76-1.472 1.536-3.36 2.304-5.664 2.304ZM223.417 96V29.184h15.072V96h-15.072Zm-21.216-54.624V28.224h57.504v13.152h-57.504Zm72.908 55.584c-4.287 0-8.127-1.056-11.519-3.168-3.328-2.112-5.984-4.992-7.968-8.64-1.92-3.648-2.88-7.808-2.88-12.48 0-4.672.96-8.832 2.88-12.48 1.984-3.648 4.64-6.528 7.968-8.64 3.392-2.112 7.232-3.168 11.519-3.168 3.137 0 5.953.608 8.449 1.824 2.56 1.216 4.64 2.912 6.24 5.088 1.6 2.112 2.496 4.544 2.688 7.296v20.16c-.192 2.752-1.088 5.216-2.688 7.392-1.536 2.112-3.584 3.776-6.144 4.992-2.56 1.216-5.408 1.824-8.545 1.824Zm2.977-13.248c3.136 0 5.664-1.024 7.584-3.072 1.92-2.112 2.88-4.768 2.88-7.968 0-2.176-.448-4.096-1.344-5.76-.832-1.664-2.048-2.944-3.648-3.84-1.536-.96-3.328-1.44-5.376-1.44-2.048 0-3.872.48-5.472 1.44-1.536.896-2.784 2.176-3.744 3.84-.896 1.664-1.344 3.584-1.344 5.76 0 2.112.448 4 1.344 5.664a10.07 10.07 0 0 0 3.744 3.936c1.6.96 3.392 1.44 5.376 1.44ZM287.974 96V83.424l2.208-11.328-2.208-11.328V49.344h14.4V96h-14.4Zm31.365 0V30.048h14.688V96h-14.688Zm-10.56-34.176v-12.48h35.808v12.48h-35.808Z" fill="#FFFFFF"/>
</svg>
